components/icon/svg/24/action_filter.svg

<?xml version="1.0" encoding="UTF-8"?>
<svg width="24px" height="24px" viewBox="0 0 24 24" version="1.1" xmlns="http://www.w3.org/2000/svg" xmlns:xlink="http://www.w3.org/1999/xlink">
    <!-- Generator: Sketch 64 (93537) - https://sketch.com -->
    <title>ic-db_action_filter_24</title>
    <desc>Created with Sketch.</desc>
    <g id="Symbols" stroke="none" stroke-width="1" fill="none" fill-rule="evenodd">
        <g id="24dp-Icon/Action/Filter" fill="#282D37">
            <path d="M8.03125,12.9688 C9.75,12.9688 11.40625,14.1874 11.875,16 L20.96875,16 C21.53125,16 21.96875,16.4687 21.96875,17 C21.96875,17.5624 21.53125,18 20.96875,18 L11.90625,18 C11.46875,19.75 9.90625,20.9688 8.03125,20.9688 C6.1875,20.9688 4.59375,19.7812 4.15625,18 L3,18 C2.46875,18 2,17.5624 2,17 C2,16.4687 2.46875,16 3,16 L4.15625,16 C4.625,14.25 6.21875,12.9688 8.03125,12.9688 Z M8,15 C6.875,15 6,15.9375 6,17 C6,18.125 6.90625,19 8,19 C9.09375,19 10,18.125 10,17 C10,15.9062 9.09375,15 8,15 Z M16.03125,3 C17.75,3 19.40625,4.1562 19.90625,6 L21,6 C21.5625,6 22,6.4688 22,7 C22,7.5625 21.5625,8 21,8 L19.90625,8 C19.46875,9.75 17.90625,11 16.03125,11 C14.21875,11 12.59375,9.7812 12.15625,8 L3,8 C2.4375,8 2,7.5625 2,7 C2,6.4688 2.4375,6 3,6 L12.15625,6 C12.625,4.25 14.21875,3 16.03125,3 Z M16,5 C14.90625,5 14,5.9063 14,7 C14,8.0938 14.90625,9 16,9 C17.09375,9 18,8.125 18,7 C18,5.9063 17.09375,5 16,5 Z" id="🎨-Color"></path>
        </g>
    </g>
</svg>

<svg width="24" height="24" xmlns="http://www.w3.org/2000/svg"><path d="M8.031 12.969c1.719 0 3.375 1.218 3.844 3.031h9.094c.562 0 1 .469 1 1 0 .562-.438 1-1 1h-9.063c-.437 1.75-2 2.969-3.875 2.969-1.844 0-3.437-1.188-3.875-2.969H3c-.531 0-1-.438-1-1 0-.531.469-1 1-1h1.156c.469-1.75 2.063-3.031 3.875-3.031zM8 15c-1.125 0-2 .938-2 2 0 1.125.906 2 2 2 1.094 0 2-.875 2-2 0-1.094-.906-2-2-2zm8.031-12a4.044 4.044 0 013.875 3H21c.563 0 1 .469 1 1 0 .563-.438 1-1 1h-1.094c-.437 1.75-2 3-3.875 3-1.812 0-3.437-1.219-3.875-3H3c-.563 0-1-.438-1-1 0-.531.438-1 1-1h9.156c.469-1.75 2.063-3 3.875-3zM16 5c-1.094 0-2 .906-2 2 0 1.094.906 2 2 2 1.094 0 2-.875 2-2 0-1.094-.906-2-2-2z" fill="#282D37" fill-rule="evenodd"/></svg>
